P2
# glyph: D2Coding 'ga' at 11px
# reason: first baseline
# structure: box 10.00x11.00 at (1.00,-9.00), ink 21.79, stroke 2.00x2.00
13 13
255
0 0 0 0 0 0 0 0 0 0 0 0 0
0 0 0 0 0 0 0 0 37 84 0 0 0
0 0 141 191 191 191 191 6 74 168 0 0 0
0 0 0 0 0 11 227 0 74 168 0 0 0
0 0 0 0 0 81 162 0 74 168 0 0 0
0 0 0 0 0 198 62 0 74 233 191 73 0
0 0 0 0 115 175 0 0 74 189 64 24 0
0 0 0 117 211 17 0 0 74 168 0 0 0
0 8 185 174 15 0 0 0 74 168 0 0 0
0 0 30 0 0 0 0 0 74 168 0 0 0
0 0 0 0 0 0 0 0 74 168 0 0 0
0 0 0 0 0 0 0 0 37 84 0 0 0
0 0 0 0 0 0 0 0 0 0 0 0 0
