P2
# glyph: D2Coding 'ga' at 16px
# reason: first baseline
# structure: box 14.00x16.00 at (1.00,-13.00), ink 46.68, stroke 2.00x2.00
17 18
255
0 0 0 0 0 0 0 0 0 0 0 0 0 0 0 0 0
0 0 0 0 0 0 0 0 0 0 0 100 75 0 0 0 0
0 10 64 64 64 64 64 64 53 0 0 200 151 0 0 0 0
0 41 255 255 255 255 255 255 193 0 0 200 151 0 0 0 0
0 0 0 0 0 0 0 196 155 0 0 200 151 0 0 0 0
0 0 0 0 0 0 12 247 95 0 0 200 151 0 0 0 0
0 0 0 0 0 0 95 248 18 0 0 200 151 0 0 0 0
0 0 0 0 0 5 215 160 0 0 0 200 229 191 191 20 0
0 0 0 0 0 130 246 32 0 0 0 200 203 128 128 13 0
0 0 0 0 89 254 104 0 0 0 0 200 151 0 0 0 0
0 0 0 112 254 136 0 0 0 0 0 200 151 0 0 0 0
0 41 188 251 110 0 0 0 0 0 0 200 151 0 0 0 0
0 75 196 50 0 0 0 0 0 0 0 200 151 0 0 0 0
0 0 0 0 0 0 0 0 0 0 0 200 151 0 0 0 0
0 0 0 0 0 0 0 0 0 0 0 200 151 0 0 0 0
0 0 0 0 0 0 0 0 0 0 0 200 151 0 0 0 0
0 0 0 0 0 0 0 0 0 0 0 50 38 0 0 0 0
0 0 0 0 0 0 0 0 0 0 0 0 0 0 0 0 0
