P2
# glyph: D2Coding 'A' at 16px
# reason: first baseline
# structure: box 8.00x11.00 at (0.00,-11.00), ink 31.11, stroke 2.00x5.00
10 14
255
0 0 0 0 0 0 0 0 0 0
0 0 0 0 0 0 0 0 0 0
0 0 0 11 248 240 4 0 0 0
0 0 0 77 235 239 63 0 0 0
0 0 0 149 174 179 137 0 0 0
0 0 0 221 108 114 211 0 0 0
0 0 39 255 43 49 255 29 0 0
0 0 111 231 0 2 237 103 0 0
0 0 183 194 64 64 200 177 0 0
0 9 246 209 191 191 211 244 7 0
0 73 255 27 0 0 35 255 69 0
0 145 212 0 0 0 0 220 143 0
0 156 113 0 0 0 0 119 156 0
0 0 0 0 0 0 0 0 0 0
