P2
# glyph: MaruBuri 'ga' at 11px
# reason: first baseline
# structure: box 11.00x11.00 at (0.00,-9.00), ink 17.47, stroke 2.00x2.00
13 13
255
0 0 0 0 0 0 0 0 0 0 0 0 0
0 0 0 0 0 0 0 11 119 22 0 0 0
0 0 0 0 0 0 0 0 131 85 0 0 0
0 15 171 136 128 154 216 0 113 83 0 0 0
0 0 0 0 0 112 114 0 113 82 0 0 0
0 0 0 0 18 202 12 0 113 124 107 54 0
0 0 0 0 173 60 0 0 113 124 64 33 0
0 0 0 152 94 0 0 0 113 80 0 0 0
0 42 156 67 0 0 0 0 113 79 0 0 0
0 35 0 0 0 0 0 0 113 78 0 0 0
0 0 0 0 0 0 0 0 113 75 0 0 0
0 0 0 0 0 0 0 0 99 43 0 0 0
0 0 0 0 0 0 0 0 0 0 0 0 0
