P2
# glyph: MaruBuri 'ga' at 16px
# reason: first baseline
# structure: box 16.00x16.00 at (0.00,-13.00), ink 36.52, stroke 2.00x2.00
18 18
255
0 0 0 0 0 0 0 0 0 0 0 0 0 0 0 0 0 0
0 0 0 0 0 0 0 0 0 0 1 103 39 0 0 0 0 0
0 0 0 0 0 0 0 0 0 0 0 123 255 34 0 0 0 0
0 0 0 0 0 0 0 0 3 0 0 2 255 28 0 0 0 0
0 0 117 226 218 191 191 191 243 148 0 2 255 27 0 0 0 0
0 0 0 0 0 0 0 31 250 46 0 2 255 26 0 0 0 0
0 0 0 0 0 0 0 146 187 0 0 2 255 26 0 0 0 0
0 0 0 0 0 0 49 245 45 0 0 2 255 82 88 126 18 0
0 0 0 0 0 8 207 127 0 0 0 2 255 140 128 128 42 0
0 0 0 0 0 172 176 3 0 0 0 2 255 24 0 0 0 0
0 0 0 3 155 191 9 0 0 0 0 2 255 23 0 0 0 0
0 0 27 187 150 6 0 0 0 0 0 2 255 23 0 0 0 0
0 56 178 69 0 0 0 0 0 0 0 2 255 22 0 0 0 0
0 0 0 0 0 0 0 0 0 0 0 2 255 21 0 0 0 0
0 0 0 0 0 0 0 0 0 0 0 2 255 19 0 0 0 0
0 0 0 0 0 0 0 0 0 0 0 1 251 4 0 0 0 0
0 0 0 0 0 0 0 0 0 0 0 0 175 0 0 0 0 0
0 0 0 0 0 0 0 0 0 0 0 0 0 0 0 0 0 0
