P2
# glyph: MaruBuri 'A' at 16px
# reason: first baseline
# structure: box 11.00x12.00 at (0.00,-11.00), ink 30.44, stroke 2.00x3.00
13 14
255
0 0 0 0 0 0 0 0 0 0 0 0 0
0 0 0 0 0 35 162 2 0 0 0 0 0
0 0 0 0 0 142 240 71 0 0 0 0 0
0 0 0 0 5 206 115 169 0 0 0 0 0
0 0 0 0 80 145 28 247 18 0 0 0 0
0 0 0 0 176 60 0 194 109 0 0 0 0
0 0 0 22 221 1 0 103 207 0 0 0 0
0 0 0 114 137 0 0 16 248 49 0 0 0
0 0 0 211 212 191 191 191 243 147 0 0 0
0 0 54 216 0 0 0 0 79 238 6 0 0
0 0 154 126 0 0 0 0 5 235 85 0 0
0 83 245 131 21 0 0 0 67 212 206 53 0
0 112 128 128 35 0 0 0 97 128 128 82 0
0 0 0 0 0 0 0 0 0 0 0 0 0
